icons/manifest.svg

<svg width="16" height="16" viewBox="0 0 16 16" fill="none" xmlns="http://www.w3.org/2000/svg">
<path fill-rule="evenodd" clip-rule="evenodd" d="M12.5 4.5H14C14 2.65385 13.1484 2.5 11.5 2.5H6C4.9011 2.5 4 3.4011 4 4.5V11H2C2 11.9231 2 13.5 3.5 13.5403H11C11.7944 13.5075 12.4751 12.8677 12.5 12V4.5ZM5.5 4.99999L5.5 11H9C9 11.9231 10.0769 12 11 12V3.99999H6.5C5.5 3.99999 5.5 4.53846 5.5 4.99999Z" fill="#BA3E72"/>
<path d="M7.5 5C6.80976 5 6.5 5 6.5 5.8L6.5 8L9.5 5L7.5 5Z" fill="#BA3E72"/>
</svg>

<svg xmlns="http://www.w3.org/2000/svg" width="16" height="16" fill="none"><path fill="#BA3E72" fill-rule="evenodd" d="M12.5 4.5H14c0-1.846-.852-2-2.5-2H6c-1.099 0-2 .901-2 2V11H2c0 .923 0 2.5 1.5 2.54H11A1.571 1.571 0 0 0 12.5 12V4.5Zm-7 .5v6H9c0 .923 1.077 1 2 1V4H6.5c-1 0-1 .538-1 1Z" clip-rule="evenodd"/><path fill="#BA3E72" d="M7.5 5c-.69 0-1 0-1 .8V8l3-3h-2Z"/></svg>
